X: 908
T: the Pet of the House    #2
R: hornpipe
%S: s:2 b:12(6+6)
P: Francis O'Neill: "The Dance Music of Ireland" (1907) #908
Z: Frank Nordberg - http://www.musicaviva.com
F: http://www.musicaviva.com/abc/tunes/ireland/oneill-1001/0908/oneill-1001-0908-1.abc
M: C|
L: 1/8
K: G
"^A"[|] D2 \
|:   G2G2 G>BA>c | B2B2 B>dc>e | d>gf>e \
[1,3 d>cB>A | G>Bd>^c e>d=c>A  :|\
[2,4 dcBA   | G2B2 G2 :|
"^B" |: d>c \
|:   B>dG>d B>dG>d | c>eA>e c>eA>e |\
[1,3 B>dG>d B>dG>d | A>GFE Dedc :| \
[2,4 G>gf>e dcBA | G2B2 G2 :|
